teeny/solid/lego.svg

<svg width="15" height="15" viewBox="0 0 15 15" fill="none" xmlns="http://www.w3.org/2000/svg">
<path fill-rule="evenodd" clip-rule="evenodd" d="M4 1.5C4 0.671573 4.67157 0 5.5 0H9.5C10.3284 0 11 0.671573 11 1.5V2H11.5C12.8807 2 14 3.11929 14 4.5V12.5C14 13.8807 12.8807 15 11.5 15H3.5C2.11929 15 1 13.8807 1 12.5V4.5C1 3.11929 2.11929 2 3.5 2H4V1.5ZM5 7V8H6V7H5ZM9 7V8H10V7H9ZM4.9001 9.7C6.2001 11.4333 8.8001 11.4333 10.1001 9.7L10.9001 10.3C9.2001 12.5667 5.8001 12.5667 4.1001 10.3L4.9001 9.7Z" fill="black"/>
</svg>

<svg viewBox="0 0 15 15" xmlns="http://www.w3.org/2000/svg"><path fill-rule="evenodd" d="M4 1.5C4 .67 4.67 0 5.5 0h4c.82 0 1.5.67 1.5 1.5V2h.5C12.88 2 14 3.11 14 4.5v8c0 1.38-1.12 2.5-2.5 2.5h-8C2.11 15 1 13.88 1 12.5v-8C1 3.11 2.11 2 3.5 2H4v-.5ZM5 7v1h1V7H5Zm4 0v1h1V7H9ZM4.9 9.7c1.3 1.73 3.9 1.73 5.2 0l.8.6c-1.7 2.26-5.1 2.26-6.8 0l.8-.6Z"/></svg>
